X: 2748
T: Banks Of The Ilen, The
R: reel
M: 4/4
K: Dmajor
|:AG|(3FED F Adfd|(3dcd fd ecAG|(3FED F Adfd|1 ecAF G2AG:|2 ecAF G2||
|:de|~f3a ~g3a|abag fdde|~f3a ~g3a|(3aba gf g2 fg|
abaf g2af|d2ec A2AG|(3FED F Ad fd|ecAF G2:|

